X:7060
T:The Man of the House
O:england
M:4/4
L:1/8
S:Tommy Peoples, Donegal (fiddle)
R:Reel
D:From a 70's demo tape
N:As played
H:The 'E2' at the start is slid
K:G
E2BE GABG | (3.G.G.EBE {G}FDAD | (3.G.G.EBE GABc |1 (3.c.d.dcA BE{G}ED
:|2 cB{d}BA BEE2 || efge fgaf | (3.f.f.ged edBd | (3.e.e.ege fgaf |
gfed Bee2 | efge fgaf | (3.f.f.g-gf edBd | (3.a.a.b-ba gfed | eB{d}BA GE{G}ED ||


